src/next/cmd/sc_inscellsctrl.svg

<svg height="16" viewBox="0 0 4.2333333 4.2333335" width="16" xmlns="http://www.w3.org/2000/svg" xmlns:xlink="http://www.w3.org/1999/xlink"><radialGradient id="a" cx="343.99899" cy="92" gradientUnits="userSpaceOnUse" r="36"><stop offset="0" stop-color="#96ff00"/><stop offset="1" stop-color="#609800"/></radialGradient><radialGradient id="b" cx="343.99899" cy="92" gradientTransform="matrix(0 1 -1 0 -39.9985 140.0029)" gradientUnits="userSpaceOnUse" r="36"><stop offset="0" stop-color="#e5ff00"/><stop offset="1" stop-color="#bff500" stop-opacity="0"/></radialGradient><linearGradient id="c" gradientTransform="matrix(0 .7388168 -.7388168 0 -1.522665 63.255682)" gradientUnits="userSpaceOnUse" x1="-80.00296" x2="-45.096584" y1="-131.93112" y2="-131.93112"><stop offset="0" stop-color="#fff"/><stop offset="1" stop-color="#fff" stop-opacity="0"/></linearGradient><linearGradient id="d" gradientUnits="userSpaceOnUse" x1="96.000008" x2="96.000008" y1="58" y2="5.932847"><stop offset="0" stop-color="#004d00" stop-opacity="0"/><stop offset=".5" stop-color="#004d00"/><stop offset="1" stop-color="#004d00" stop-opacity="0"/></linearGradient><filter id="e"><feGaussianBlur stdDeviation="1.04"/></filter><linearGradient id="f" gradientUnits="userSpaceOnUse" x1="8" x2="8.408372" y1="29.000006" y2="-6.999998"><stop offset="0"/><stop offset="1" stop-color="#fff"/></linearGradient><linearGradient id="g" gradientTransform="matrix(.28494299 0 0 .34511728 .597009 263.04019)" gradientUnits="userSpaceOnUse" x1="46.048" x2="46.048" y1="128.01709" y2="16.6203"><stop offset="0" stop-color="#c7cdd7"/><stop offset="1" stop-color="#fff"/></linearGradient><g transform="matrix(.125 0 0 .125 0 -32.891665)"><path d="m2.1166675 271.59999h29.6333325v21.16666h-29.6333333z" fill="url(#g)"/><path d="m0 4v.5 2.5.5 2.5.5 3.013672.486328h1 4 1 4 1 4 1v-.486328-6.013672-.5-3h-1-4-1-4-1-4zm1 .5h4v2.5h-4zm5 0h4v2.5h-4zm5 0h4v2.5h-4zm-10 3h4v2.5h-4zm5 0h4v2.5h-4zm5 0h4v2.5h-4zm-10 3h4v3.013672h-4zm5 0h4v3.013672h-4zm5 0h4v3.013672h-4z" fill="url(#f)" transform="matrix(2.1166667 0 0 2.1166667 0 263.13332)"/><path d="m10.583334 277.94999v1.05833 5.29167 1.05833h2.116667 8.466666 2.116666v-1.05833l-.000001-5.29167v-1.05833h-2.116665-8.466667zm2.116666 1.05833h8.466666v5.29167h-8.466666z" fill="#1a508f" stroke-width=".264583"/><path d="m12.7 279.00833h8.466665l.000002 5.29167h-8.466666z" fill="#3ea6ff" fill-opacity=".85098"/><path d="m8.4666665 275.83332v9.525 1.05833 1.05834h16.9333335v-2.11667-9.525h-1.058333-13.758333zm2.1166665 2.11667h12.7v7.40833h-12.7z" fill="#fff" fill-opacity=".891473" stroke-width="2.116667"/><g transform="matrix(.26458334 0 0 .26458334 -19.049998 263.13332)"><g transform="matrix(.8749995 0 0 .8749995 16.000063 -.000002)"><circle cx="343.99899" cy="92" fill="url(#a)" r="36" transform="matrix(-.858425 .2300143 -.2300143 -.858425 412.45864 31.85043)"/><circle cx="343.99899" cy="92" fill="url(#b)" r="36" transform="matrix(-.6438188 .1725107 -.1725107 -.6438188 333.34401 31.887831)"/><path d="m96.000027 4.1481901c-11.345716 0-20.826095 8.0116059-23.111114 18.6782149 4.554661 4.245895 13.196893 7.111109 23.111114 7.111109 9.914233 0 18.556453-2.865214 23.111113-7.111109-2.28501-10.666609-11.7654-18.6782149-23.111113-18.6782149z" fill="url(#c)" opacity=".8"/></g><path d="m95.99999 7.9999828v16.0000002h-16v8h16v16h8v-16h16v-8h-16v-16.0000001z" style="fill:none;stroke-width:4;stroke-linecap:round;stroke-linejoin:round;stroke:url(#d);filter:url(#e)"/><path d="m95.99999 7.9999829v16.0000001h-16v8h16v16h8v-16h16v-8h-16v-16.0000001z" fill="#fff" fill-rule="evenodd"/></g></g></svg>

<?xml version="1.0" encoding="UTF-8" standalone="no"?>
<svg
   xmlns:dc="http://purl.org/dc/elements/1.1/"
   xmlns:cc="http://creativecommons.org/ns#"
   xmlns:rdf="http://www.w3.org/1999/02/22-rdf-syntax-ns#"
   xmlns:svg="http://www.w3.org/2000/svg"
   xmlns="http://www.w3.org/2000/svg"
   xmlns:xlink="http://www.w3.org/1999/xlink"
   xmlns:sodipodi="http://sodipodi.sourceforge.net/DTD/sodipodi-0.dtd"
   xmlns:inkscape="http://www.inkscape.org/namespaces/inkscape"
   height="16"
   viewBox="0 0 4.2333333 4.2333335"
   width="16"
   version="1.1"
   id="svg24"
   sodipodi:docname="sc_inscellsctrl.svg"
   inkscape:version="0.92.4 (unknown)"
   inkscape:export-filename="/home/rizmut/Dokumen/Rizmut/Github/libreoffice-style-karasa-jaga/build/next/cmd/sc_inscellsctrl.png"
   inkscape:export-xdpi="96"
   inkscape:export-ydpi="96">
  <metadata
     id="metadata30">
    <rdf:RDF>
      <cc:Work
         rdf:about="">
        <dc:format>image/svg+xml</dc:format>
        <dc:type
           rdf:resource="http://purl.org/dc/dcmitype/StillImage" />
        <dc:title />
      </cc:Work>
    </rdf:RDF>
  </metadata>
  <defs
     id="defs28">
    <radialGradient
       id="k"
       cx="343.99899"
       cy="92"
       gradientUnits="userSpaceOnUse"
       r="36">
      <stop
         offset="0"
         stop-color="#96ff00"
         id="stop48" />
      <stop
         offset="1"
         stop-color="#609800"
         id="stop50" />
    </radialGradient>
    <radialGradient
       id="l"
       cx="343.99899"
       cy="92"
       gradientTransform="rotate(90,-90.0007,50.0022)"
       gradientUnits="userSpaceOnUse"
       r="36">
      <stop
         offset="0"
         stop-color="#e5ff00"
         id="stop53" />
      <stop
         offset="1"
         stop-color="#bff500"
         stop-opacity="0"
         id="stop55" />
    </radialGradient>
    <linearGradient
       id="m"
       gradientTransform="matrix(0,0.7388168,-0.7388168,0,-1.522665,63.255682)"
       gradientUnits="userSpaceOnUse"
       x1="-80.00296"
       x2="-45.096584"
       xlink:href="#a-3"
       y1="-131.93112"
       y2="-131.93112" />
    <linearGradient
       id="a-3">
      <stop
         offset="0"
         stop-color="#fff"
         id="stop2-6" />
      <stop
         offset="1"
         stop-color="#fff"
         stop-opacity="0"
         id="stop4-7" />
    </linearGradient>
    <linearGradient
       id="n"
       gradientUnits="userSpaceOnUse"
       x1="96.000008"
       x2="96.000008"
       y1="58"
       y2="5.932847">
      <stop
         offset="0"
         stop-color="#004d00"
         stop-opacity="0"
         id="stop59" />
      <stop
         offset=".5"
         stop-color="#004d00"
         id="stop61" />
      <stop
         offset="1"
         stop-color="#004d00"
         stop-opacity="0"
         id="stop63" />
    </linearGradient>
    <filter
       id="o">
      <feGaussianBlur
         stdDeviation="1.04"
         id="feGaussianBlur66" />
    </filter>
  </defs>
  <sodipodi:namedview
     pagecolor="#ffffff"
     bordercolor="#666666"
     borderopacity="1"
     objecttolerance="10"
     gridtolerance="10"
     guidetolerance="10"
     inkscape:pageopacity="0"
     inkscape:pageshadow="2"
     inkscape:window-width="1366"
     inkscape:window-height="706"
     id="namedview26"
     showgrid="true"
     inkscape:zoom="29.5"
     inkscape:cx="8.9765181"
     inkscape:cy="8.0169467"
     inkscape:window-x="0"
     inkscape:window-y="0"
     inkscape:window-maximized="1"
     inkscape:current-layer="svg24">
    <inkscape:grid
       type="xygrid"
       id="grid840" />
  </sodipodi:namedview>
  <linearGradient
     id="a"
     gradientUnits="userSpaceOnUse"
     x1="8"
     x2="8.408372"
     y1="29.000006"
     y2="-6.999998">
    <stop
       offset="0"
       id="stop2" />
    <stop
       offset="1"
       stop-color="#fff"
       id="stop4" />
  </linearGradient>
  <linearGradient
     id="b"
     gradientTransform="matrix(.28494299 0 0 .34511728 .597009 263.04019)"
     gradientUnits="userSpaceOnUse"
     x1="46.048"
     x2="46.048"
     y1="128.01709"
     y2="16.6203">
    <stop
       offset="0"
       stop-color="#c7cdd7"
       id="stop7" />
    <stop
       offset="1"
       stop-color="#fff"
       id="stop9" />
  </linearGradient>
  <g
     transform="matrix(.125 0 0 .125 0 -32.891665)"
     id="g22">
    <path
       d="M 2.1166675,271.59999 H 31.75 l 0,21.16666 H 2.1166667 Z"
       id="path12"
       inkscape:connector-curvature="0"
       style="fill:url(#b)"
       sodipodi:nodetypes="ccccc" />
    <path
       style="fill:url(#a)"
       d="M 0 4 L 0 4.5 L 0 7 L 0 7.5 L 0 10 L 0 10.5 L 0 13.513672 L 0 14 L 1 14 L 5 14 L 6 14 L 10 14 L 11 14 L 15 14 L 16 14 L 16 13.513672 L 16 7.5 L 16 7 L 16 4 L 15 4 L 11 4 L 10 4 L 6 4 L 5 4 L 1 4 L 0 4 z M 1 4.5 L 5 4.5 L 5 7 L 1 7 L 1 4.5 z M 6 4.5 L 10 4.5 L 10 7 L 6 7 L 6 4.5 z M 11 4.5 L 15 4.5 L 15 7 L 11 7 L 11 4.5 z M 1 7.5 L 5 7.5 L 5 10 L 1 10 L 1 7.5 z M 6 7.5 L 10 7.5 L 10 10 L 6 10 L 6 7.5 z M 11 7.5 L 15 7.5 L 15 10 L 11 10 L 11 7.5 z M 1 10.5 L 5 10.5 L 5 13.513672 L 1 13.513672 L 1 10.5 z M 6 10.5 L 10 10.5 L 10 13.513672 L 6 13.513672 L 6 10.5 z M 11 10.5 L 15 10.5 L 15 13.513672 L 11 13.513672 L 11 10.5 z "
       transform="matrix(2.1166667,0,0,2.1166667,0,263.13332)"
       id="path14" />
    <path
       d="m 10.583334,277.94999 v 1.05833 5.29167 1.05833 h 2.116667 8.466666 2.116666 v -1.05833 l -10e-7,-5.29167 v -1.05833 H 21.166667 12.7 Z M 12.7,279.00832 h 8.466666 v 5.29167 H 12.7 Z"
       id="path16"
       inkscape:connector-curvature="0"
       style="fill:#1a508f;stroke-width:0.26458332" />
    <path
       d="m 12.7,279.00833 h 8.466665 l 2e-6,5.29167 h -8.466666 z"
       id="path18"
       inkscape:connector-curvature="0"
       style="fill:#3ea6ff;fill-opacity:0.85097997" />
    <path
       d="m 8.4666665,275.83332 v 9.525 1.05833 1.05834 H 25.4 v -2.11667 -9.525 H 24.341667 10.583334 Z m 2.1166665,2.11667 h 12.7 v 7.40833 h -12.7 z"
       id="path20"
       inkscape:connector-curvature="0"
       style="fill:#ffffff;fill-opacity:0.89147297;stroke-width:2.11666679" />
    <g
       transform="matrix(0.26458334,0,0,0.26458334,-19.049998,263.13332)"
       id="g95">
      <g
         transform="matrix(0.8749995,0,0,0.8749995,16.000063,-2e-6)"
         id="g89">
        <circle
           style="fill:url(#k)"
           cx="343.99899"
           cy="92"
           r="36"
           transform="matrix(-0.858425,0.2300143,-0.2300143,-0.858425,412.45864,31.85043)"
           id="circle83" />
        <circle
           style="fill:url(#l)"
           cx="343.99899"
           cy="92"
           r="36"
           transform="matrix(-0.6438188,0.1725107,-0.1725107,-0.6438188,333.34401,31.887831)"
           id="circle85" />
        <path
           style="opacity:0.8;fill:url(#m)"
           inkscape:connector-curvature="0"
           d="m 96.000027,4.1481901 c -11.345716,0 -20.826095,8.0116059 -23.111114,18.6782149 4.554661,4.245895 13.196893,7.111109 23.111114,7.111109 9.914233,0 18.556453,-2.865214 23.111113,-7.111109 C 116.82613,12.159796 107.34574,4.1481901 96.000027,4.1481901 Z"
           id="path87" />
      </g>
      <path
         inkscape:connector-curvature="0"
         d="M 95.99999,7.9999828 V 23.999983 h -16 v 8 h 16 v 16 h 8 v -16 h 16 v -8 h -16 V 7.9999829 Z"
         style="fill:none;stroke:url(#n);stroke-width:4;stroke-linecap:round;stroke-linejoin:round;filter:url(#o)"
         id="path91" />
      <path
         style="fill:#ffffff;fill-rule:evenodd"
         inkscape:connector-curvature="0"
         d="M 95.99999,7.9999829 V 23.999983 h -16 v 8 h 16 v 16 h 8 v -16 h 16 v -8 h -16 V 7.9999829 Z"
         id="path93" />
    </g>
  </g>
</svg>
